X:1
T:Behold Me Standing at the Door
T:Behold Me Standing at the Door
T:Phoebe Palmer Knapp
T:Frances Jane (Fanny) Crosby, 1872
T:Public Domain Courtesy of the Cyber Hymnal™
C:Phoebe Palmer Knapp
Z:Public Domain
Z:Courtesy of the Cyber Hymnal™
%%score ( 1 2 ) 3
L:1/8
Q:1/4=100
M:4/4
K:Ab
V:1 treble 
V:2 treble 
V:3 bass 
V:1
"^With feeling" [CE]2 | [CE]4- [CE][EA][EG][EA] |"^(May be sung as a solo)" [FB]>F [FB]4 [FA]2 | %3
w: 1.~Be-|hold * Me stand- ing|at the door, And|
w: 2.~I|bore * the cru- el|thorns for thee, I|
w: 3.~I|would * not plead with|thee in vain; Re-|
w: 4.~I|bring * thee joy from|heav’n a- bove, I|
 [EG]3 [EA] [EB][E=A][GB][Gc] | A4- [EA]E[EA][Ec] | [Ae]4- [Ae][Ec][EA]E | (G2 F3) [Fd][Fc][FB] | %7
w: hear Me plead- ing ev- er-|more, With gen- tle voice:|oh, * heart of sin,|May * I come in?|
w: wait- ed long and pa- tient-|ly; Say, wear- y heart,|op- * pressed with sin,|May * I come in?|
w: mem- ber all My grief and|pain; I died to ran-|som * thee from sin:|May * I come in?|
w: bring thee par- don, peace, and|love: Say, wear- y heart,|op- * pressed with sin,|May * I come in?|
 [EA]3 [Ec] [DB]3 [DE] | [CA]4- [CA] ||"^Refrain" E2 | [EG]3 [EA] [EB][C=A][DB][Ec] | %11
w: May I come in?||||
w: May I come in?|Be- *|hold|Me stand- ing at the door,|
w: May I come in?||||
w: May I come in?||||
 [CA]4- [CE]2 [EA]2 | [Ac]3 [Ad] [Ae][Ec][EB][=DA] | [EB]6 E2 [Ec]3 [Fd][Ec][EB][EA]E | %14
w: |||
w: And * hear|Me plead- ing ev- er- more:|Say, wear- y heart, op- pressed with sin,|
w: |||
w: |||
 [EG]2 [DF]3 [Fd][Fc][FB] | [EA]3 [Ec] [DB]3 [DE] | [CA]6 |] %17
w: |||
w: May I come in? May|I come in? *||
w: |||
w: |||
V:2
 x2 | x8 | x8 | x8 | x5 E x2 | x7 E | D4 x4 | x8 | x5 || x2 | x8 | x8 | x8 | x16 | x8 | x8 | x6 |] %17
V:3
 [A,,A,]2 | [A,,A,]4- [A,,A,][A,,C][E,B,][C,A,] | [D,F,]>[D,D] [D,D]4 [D,D]2 | %3
 [E,B,]3 [E,C] [E,D][E,C][E,D][E,E] | [A,C]4- [A,C][A,C][A,C][A,C] | %5
 [A,C]4- [A,C][A,,A,][C,A,][C,A,] | [D,A,]4 z [B,,B,][C,E][D,D] | [E,C]3 [E,A,] [E,G,]3 [E,G,] | %8
 [A,,A,]4- [A,,A,] || [E,G,]2 | [E,B,]3 [E,C] [E,G,][E,_G,][E,=G,]E, | [A,,E,]4 A,2 [A,C]2 | %12
 [A,E]3 [B,E] [CE]A,[G,B,][F,B,] | [E,G,]6 [E,G,]2 [A,,A,]3 [A,,A,][A,,A,][B,,G,][C,A,][C,A,] | %14
 [D,A,]4 z [B,,B,][C,E][D,D] | [E,C]3 [E,A,] [E,G,]3 [E,G,] | [A,,A,]6 |] %17

